X:217
T:Flying Home to Shelley
C:Paul Gitlitz
S:NESI 2011
Z:robin.beech@mcgill.ca
R:reel
M:4/4
L:1/8
K:G
DGdG cGBG | DGcG BGAG | DGAG BGAG | DEGD EDB,C |
DGdG cGBG | DGcG BGAG | DGAG BGAG |1 DEFD G4 :|2 DEFD GABc |:
d3B AGAB | c3B AGE2 | e3d BAG2 | ABdA BAGB |
d3B AGAB | cGBG AGE2 | e3d BAG2 |1 ABAF GABc :|2 ABAF G4 |]
